X: 10
T: Bonnie Lass o' Bon Accord
R:Air or March
C:J. Scott Skinner
S:MacDonald - The Skye Collection
N:pg.152
M:C
L:1/8
Q:1/4=80
K:A
E|A>B {aB}c>B AA,CE|A{BAG}A/f/ e/c/{c}B/A/ {A}B2 Bc|
A>B {A/B/}c>B AcE=G|(F/D/F/A/) (G/E/G/B/) A2 A:|
{efg}a>cd>f eA a(g/f/)|eA (f/e/)(d/c/) {c}B2 B(3e/f/g/|a>c (df) (e/A/c/A/)
(a=G)|
(F/D/F/A/) (G/E/G/B/) A2 A (3e/f/g/|a>c df eA a(g/f/)|eA (f/e/)(d/c/) {c}B2 B>c|
(A,/C/E/A/) c>B AC E>=G|(F/D/F/A/) (G/E/G/B/) A2 A||
E|{B/}(A/G/A/B/) {AB}(c/B/A/G/) (A/A,/B,/C/ E/F/G/G/)|
(A/G/)(A/f/) (e/c/){c}(B/A/) {A}B2 B>c|
(A/G/A/B/) (c/B/A/G/) (A/A,/B,/C/ D/E/F/=G/)|(F/D/F/A/) (G/E/G/B/) A2 A:|
|{efg}a/g/f/e/ d/c/B/A/ e/A/c/A/ a/(G/A/)B/|c/A/e/A/ a/e/d/c/ {c}B2 B (3e/f/g/|
a/g/f/e/ d/c/B/A/ e/A/c/A/ a/(G/A/=G/)|(F/D/F/A/) G/E/G/B/ A2 A (3e/f/g/|
a/g/f/e/ d/c/B/A/ c/A/e/A/ ag/f/|e/(G/A/a/) f/e/d/c/ B2 B>c|A,/C/E/A/ c>G AC
E>=G|
(F/D/F/A/ G/f/e/G/) {G}A2A||


